; generated by PrusaSlicer 2.7.1+win64 on 2024-10-28 at 17:30:13 UTC


;
;
; 

; external perimeters extrusion width = 0.45mm
; perimeters extrusion width = 0.45mm
; infill extrusion width = 0.45mm
; solid infill extrusion width = 0.45mm
; top infill extrusion width = 0.40mm
; first layer extrusion width = 0.42mm

; external perimeters extrusion width = 0.45mm
; perimeters extrusion width = 0.45mm
; infill extrusion width = 0.45mm
; solid infill extrusion width = 0.45mm
; top infill extrusion width = 0.40mm
; first layer extrusion width = 0.42mm

; external perimeters extrusion width = 0.45mm
; perimeters extrusion width = 0.45mm
; infill extrusion width = 0.45mm
; solid infill extrusion width = 0.45mm
; top infill extrusion width = 0.40mm
; first layer extrusion width = 0.42mm

; external perimeters extrusion width = 0.45mm
; perimeters extrusion width = 0.45mm
; infill extrusion width = 0.45mm
; solid infill extrusion width = 0.45mm
; top infill extrusion width = 0.40mm
; first layer extrusion width = 0.42mm

; external perimeters extrusion width = 0.45mm
; perimeters extrusion width = 0.45mm
; infill extrusion width = 0.45mm
; solid infill extrusion width = 0.45mm
; top infill extrusion width = 0.40mm
; first layer extrusion width = 0.42mm

; external perimeters extrusion width = 0.45mm
; perimeters extrusion width = 0.45mm
; infill extrusion width = 0.45mm
; solid infill extrusion width = 0.45mm
; top infill extrusion width = 0.40mm
; first layer extrusion width = 0.42mm

M73 P0 R218
M73 Q0 S219
M201 X1000 Y1000 Z200 E5000 ; sets maximum accelerations, mm/sec^2
M203 X200 Y200 Z12 E120 ; sets maximum feedrates, mm / sec
M204 S1250 T1250 ; sets acceleration (S) and retract acceleration (R), mm/sec^2
M205 X8.00 Y8.00 Z0.40 E4.50 ; sets the jerk limits, mm/sec
M205 S0 T0 ; sets the minimum extruding and travel feed rate, mm/sec

; printing object filter extension.STL id:0 copy 0
; stop printing object filter extension.STL id:0 copy 0
; printing object NASA Filter.STL id:3 copy 0
; stop printing object NASA Filter.STL id:3 copy 0
; printing object charger.STL id:4 copy 0
; stop printing object charger.STL id:4 copy 0
; printing object cap.STL id:5 copy 0
; stop printing object cap.STL id:5 copy 0
; printing object Ducktail.STL id:1 copy 0
; stop printing object Ducktail.STL id:1 copy 0
; printing object Ducktail.STL id:2 copy 0
; stop printing object Ducktail.STL id:2 copy 0

;TYPE:Custom
M862.3 P "MK3S" ; printer model check
M862.1 P0.4 ; nozzle diameter check
M115 U3.13.2 ; tell printer latest fw version
G90 ; use absolute coordinates
M83 ; extruder relative mode
M104 S215 ; set extruder temp
M140 S60 ; set bed temp
M190 S60 ; wait for bed temp
M109 S215 ; wait for extruder temp
G28 W ; home all without mesh bed level
G80 X6.70727 Y0.043862 W237.958 H208.942 ; mesh bed levelling

G1 Z0.2 F720
G1 Y-3 F1000 ; go outside print area
G92 E0
G1 X60 E9 F1000 ; intro line
G1 X100 E12.5 F1000 ; intro line

G92 E0
M221 S95

; Don't change E values below. Excessive value can damage the printer.
M907 E430 ; set extruder motor current
G21 ; set units to millimeters
G90 ; use absolute coordinates
M83 ; use relative distances for extrusion

M900 K0.05 ; Filament gcode LA 1.5
M900 K30 ; Filament gcode LA 1.0




M107
;LAYER_CHANGE
;Z:0.2
;HEIGHT:0.2
;BEFORE_LAYER_CHANGE
G92 E0.0
;0.2


G1 E-.8 F2100
G1 Z.2 F720
;AFTER_LAYER_CHANGE
;0.2
G1 X7.213 Y2.161 F10800
G1 Z.2 F720
G1 E.8 F2100
M204 S800
;TYPE:Skirt/Brim
;WIDTH:0.42
G1 F1200
G1 X7.287 Y1.913 E.00811
G1 X8.333 Y1.036 E.0428
G1 X9.266 Y.843 E.02987
G1 X216.693 Y.232 E6.50376
G1 X242.1 Y.232 E.79662
G1 X243.407 Y.624 E.04278
G1 X244.283 Y1.67 E.04278
G1 X244.477 Y2.609 E.03006
G1 X244.477 Y205.809 E6.37119
G1 X244.085 Y207.117 E.04281
M73 P0 R217
G1 X243.04 Y207.993 E.04275
G1 X242.149 Y208.186 E.02858
G1 X212.473 Y208.797 E.93067
G1 X9.273 Y208.797 E6.37119
M73 Q0 S218
G1 X7.966 Y208.405 E.04278
G1 X7.089 Y207.36 E.04277
G1 X6.896 Y206.42 E.03009
G1 X6.896 Y3.22 E6.37119
G1 X7.196 Y2.218 E.03279
M204 S1000
; printing object filter extension.STL id:0 copy 0
;WIPE_START
G1 F8640
G1 X7.213 Y2.161 E-.01373
G1 X7.287 Y1.913 E-.05976
G1 X8.333 Y1.036 E-.31518
G1 X9.266 Y.843 E-.21999
G1 X10.095 Y.841 E-.19134
;WIPE_END
G1 Z.6 F720
G1 X241.313 Y205.022 F10800
G1 Z.2 F720
G1 E.8 F2100
M204 S800
;TYPE:Perimeter
;WIDTH:0.419999
G1 F1200
G1 X217.487 Y205.022 E.74705
G1 X217.487 Y3.397 E6.3218
G1 X241.313 Y3.397 E.74705
G1 X241.313 Y15.309 E.37349
G1 X241.313 Y204.962 E5.94643
M204 S1000
G1 X241.69 Y205.399 F10800
M204 S800
;TYPE:External perimeter
G1 F1200
G1 X217.11 Y205.399 E.77069
G1 X217.11 Y3.019 E6.34547
G1 X241.69 Y3.019 E.77069
M73 P0 R216
G1 X241.69 Y15.309 E.38534
G1 X241.69 Y205.339 E5.95825
M204 S1000
;WIPE_START
G1 F8640
M73 Q0 S217
G1 X241.69 Y205.399 E-.01385
G1 X238.285 Y205.399 E-.78615
;WIPE_END
G1 Z.6 F720
G1 X240.38 Y3.566 F10800
G1 Z.2 F720
G1 E.8 F2100
M204 S800
;TYPE:Solid infill
;WIDTH:0.420572
G1 F1200
G1 X240.973 Y4.16 E.02636
G1 X240.973 Y4.694 E.01677
G1 X240.015 Y3.736 E.04254
G1 X239.481 Y3.736 E.01677
G1 X240.973 Y5.228 E.06626
G1 X240.973 Y5.762 E.01677
G1 X238.947 Y3.736 E.08997
G1 X238.413 Y3.736 E.01677
G1 X240.973 Y6.296 E.11369
G1 X240.973 Y6.83 E.01677
G1 X237.879 Y3.736 E.1374
G1 X237.345 Y3.736 E.01677
G1 X240.973 Y7.365 E.16114
G1 X240.973 Y7.899 E.01677
G1 X236.811 Y3.736 E.18485
G1 X236.277 Y3.736 E.01677
G1 X240.973 Y8.433 E.20857
G1 X240.973 Y8.967 E.01677
G1 X235.743 Y3.736 E.23228
G1 X235.208 Y3.736 E.0168
G1 X240.973 Y9.501 E.25602
G1 X240.973 Y10.035 E.01677
G1 X234.674 Y3.736 E.27973
G1 X234.14 Y3.736 E.01677
G1 X240.973 Y10.569 E.30345
G1 X240.973 Y11.103 E.01677
G1 X233.606 Y3.736 E.32716
G1 X233.072 Y3.736 E.01677
G1 X240.973 Y11.637 E.35088
G1 X240.973 Y12.171 E.01677
G1 X232.538 Y3.736 E.37459
G1 X232.004 Y3.736 E.01677
G1 X240.973 Y12.705 E.3983
G1 X240.973 Y13.239 E.01677
G1 X231.47 Y3.736 E.42202
G1 X230.936 Y3.736 E.01677
G1 X240.973 Y13.773 E.44573
G1 X240.973 Y14.308 E.0168
G1 X230.402 Y3.736 E.46947
G1 X229.868 Y3.736 E.01677
G1 X240.973 Y14.842 E.49318
G1 X240.973 Y15.376 E.01677
G1 X229.334 Y3.736 E.5169
G1 X228.799 Y3.736 E.0168
G1 X240.973 Y15.91 E.54063
G1 X240.973 Y16.444 E.01677
G1 X228.265 Y3.736 E.56435
G1 X227.731 Y3.736 E.01677
G1 X240.973 Y16.978 E.58806
G1 X240.973 Y17.512 E.01677
G1 X227.197 Y3.736 E.61178
G1 X226.663 Y3.736 E.01677
G1 X240.973 Y18.046 E.63549
G1 X240.973 Y18.58 E.01677
G1 X226.129 Y3.736 E.65921
G1 X225.595 Y3.736 E.01677
G1 X240.973 Y19.114 E.68292
G1 X240.973 Y19.648 E.01677
G1 X225.061 Y3.736 E.70664
G1 X224.527 Y3.736 E.01677
G1 X240.973 Y20.182 E.73035
G1 X240.973 Y20.717 E.0168
G1 X223.993 Y3.736 E.75409
G1 X223.459 Y3.736 E.01677
G1 X240.973 Y21.251 E.7778
G1 X240.973 Y21.785 E.01677
G1 X222.925 Y3.736 E.80152
G1 X222.391 Y3.736 E.01677
G1 X240.973 Y22.319 E.82523
G1 X240.973 Y22.853 E.01677
G1 X221.856 Y3.736 E.84897
G1 X221.322 Y3.736 E.01677
G1 X240.973 Y23.387 E.87268
G1 X240.973 Y23.921 E.01677
G1 X220.788 Y3.736 E.8964
G1 X220.254 Y3.736 E.01677
G1 X240.973 Y24.455 E.92011
G1 X240.973 Y24.989 E.01677
M73 P1 R216
M73 Q1 S217
G1 X219.72 Y3.736 E.94382
G1 X219.186 Y3.736 E.01677
G1 X240.973 Y25.523 E.96754
G1 X240.973 Y26.057 E.01677
G1 X218.652 Y3.736 E.99125
G1 X218.118 Y3.736 E.01677
G1 X240.973 Y26.591 E1.01497
G1 X240.973 Y27.126 E.0168
G1 X217.826 Y3.978 E1.02796
G1 X217.826 Y4.512 E.01677
G1 X240.973 Y27.66 E1.02796
G1 X240.973 Y28.194 E.01677
M73 P1 R215
G1 X217.826 Y5.047 E1.02793
G1 X217.826 Y5.581 E.01677
G1 X240.973 Y28.728 E1.02793
G1 X240.973 Y29.262 E.01677
G1 X217.826 Y6.115 E1.02793
G1 X217.826 Y6.649 E.01677
G1 X240.973 Y29.796 E1.02793
G1 X240.973 Y30.33 E.01677
G1 X217.826 Y7.183 E1.02793
G1 X217.826 Y7.717 E.01677
M73 Q1 S216
G1 X240.973 Y30.864 E1.02793
G1 X240.973 Y31.398 E.01677
G1 X217.826 Y8.251 E1.02793
G1 X217.826 Y8.785 E.01677
G1 X240.973 Y31.932 E1.02793
G1 X240.973 Y32.466 E.01677
G1 X217.826 Y9.319 E1.02793
G1 X217.826 Y9.853 E.01677
G1 X240.973 Y33 E1.02793
G1 X240.973 Y33.534 E.01677
G1 X217.826 Y10.387 E1.02793
G1 X217.826 Y10.921 E.01677
G1 X240.973 Y34.069 E1.02796
G1 X240.973 Y34.603 E.01677
G1 X217.826 Y11.456 E1.02793
G1 X217.826 Y11.99 E.01677
G1 X240.973 Y35.137 E1.02793
G1 X240.973 Y35.671 E.01677
G1 X217.826 Y12.524 E1.02793
G1 X217.826 Y13.058 E.01677
G1 X240.973 Y36.205 E1.02793
G1 X240.973 Y36.739 E.01677
G1 X217.826 Y13.592 E1.02793
G1 X217.826 Y14.126 E.01677
G1 X240.973 Y37.273 E1.02793
G1 X240.973 Y37.807 E.01677
G1 X217.826 Y14.66 E1.02793
G1 X217.826 Y15.194 E.01677
G1 X240.973 Y38.341 E1.02793
G1 X240.973 Y38.875 E.01677
G1 X217.826 Y15.728 E1.02793
G1 X217.826 Y16.262 E.01677
G1 X240.973 Y39.409 E1.02793
G1 X240.973 Y39.943 E.01677
G1 X217.826 Y16.796 E1.02793
G1 X217.826 Y17.33 E.01677
G1 X240.973 Y40.478 E1.02796
G1 X240.973 Y41.012 E.01677
G1 X217.826 Y17.865 E1.02793
G1 X217.826 Y18.399 E.01677
G1 X240.973 Y41.546 E1.02793
G1 X240.973 Y42.08 E.01677
G1 X217.826 Y18.933 E1.02793
G1 X217.826 Y19.467 E.01677
G1 X240.973 Y42.614 E1.02793
G1 X240.973 Y43.148 E.01677
G1 X217.826 Y20.001 E1.02793
G1 X217.826 Y20.535 E.01677
G1 X240.973 Y43.682 E1.02793
G1 X240.973 Y44.216 E.01677
G1 X217.826 Y21.069 E1.02793
G1 X217.826 Y21.603 E.01677
G1 X240.973 Y44.75 E1.02793
G1 X240.973 Y45.284 E.01677
G1 X217.826 Y22.137 E1.02793
G1 X217.826 Y22.671 E.01677
G1 X240.973 Y45.818 E1.02793
G1 X240.973 Y46.352 E.01677
G1 X217.826 Y23.205 E1.02793
G1 X217.826 Y23.739 E.01677
G1 X240.973 Y46.886 E1.02793
G1 X240.973 Y47.421 E.0168
M73 P1 R214
G1 X217.826 Y24.273 E1.02796
G1 X217.826 Y24.808 E.0168
G1 X240.973 Y47.955 E1.02793
G1 X240.973 Y48.489 E.01677
G1 X217.826 Y25.342 E1.02793
G1 X217.826 Y25.876 E.01677
G1 X240.973 Y49.023 E1.02793
G1 X240.973 Y49.557 E.01677
G1 X217.826 Y26.41 E1.02793
G1 X217.826 Y26.944 E.01677
M73 Q1 S215
G1 X240.973 Y50.091 E1.02793
G1 X240.973 Y50.625 E.01677
G1 X217.826 Y27.478 E1.02793
G1 X217.826 Y28.012 E.01677
G1 X240.973 Y51.159 E1.02793
G1 X240.973 Y51.693 E.01677
G1 X217.826 Y28.546 E1.02793
G1 X217.826 Y29.08 E.01677
G1 X240.973 Y52.227 E1.02793
G1 X240.973 Y52.761 E.01677
G1 X217.826 Y29.614 E1.02793
G1 X217.826 Y30.148 E.01677
G1 X240.973 Y53.295 E1.02793
G1 X240.973 Y53.83 E.0168
G1 X217.826 Y30.682 E1.02796
G1 X217.826 Y31.217 E.0168
G1 X240.973 Y54.364 E1.02793
G1 X240.973 Y54.898 E.01677
G1 X217.826 Y31.751 E1.02793
G1 X217.826 Y32.285 E.01677
G1 X240.973 Y55.432 E1.02793
G1 X240.973 Y55.966 E.01677
G1 X217.826 Y32.819 E1.02793
G1 X217.826 Y33.353 E.01677
G1 X240.973 Y56.5 E1.02793
G1 X240.973 Y57.034 E.01677
G1 X217.826 Y33.887 E1.02793
G1 X217.826 Y34.421 E.01677
G1 X240.973 Y57.568 E1.02793
G1 X240.973 Y58.102 E.01677
G1 X217.826 Y34.955 E1.02793
G1 X217.826 Y35.489 E.01677
G1 X240.973 Y58.636 E1.02793
G1 X240.973 Y59.17 E.01677
G1 X217.826 Y36.023 E1.02793
G1 X217.826 Y36.557 E.01677
G1 X240.973 Y59.704 E1.02793
G1 X240.973 Y60.239 E.0168
G1 X217.826 Y37.091 E1.02796
G1 X217.826 Y37.625 E.01677
G1 X240.973 Y60.773 E1.02796
G1 X240.973 Y61.307 E.01677
G1 X217.826 Y38.16 E1.02793
G1 X217.826 Y38.694 E.01677
G1 X240.973 Y61.841 E1.02793
G1 X240.973 Y62.375 E.01677
G1 X217.826 Y39.228 E1.02793
G1 X217.826 Y39.762 E.01677
G1 X240.973 Y62.909 E1.02793
G1 X240.973 Y63.443 E.01677
G1 X217.826 Y40.296 E1.02793
G1 X217.826 Y40.83 E.01677
G1 X240.973 Y63.977 E1.02793
G1 X240.973 Y64.511 E.01677
G1 X217.826 Y41.364 E1.02793
G1 X217.826 Y41.898 E.01677
G1 X240.973 Y65.045 E1.02793
G1 X240.973 Y65.579 E.01677
G1 X217.826 Y42.432 E1.02793
G1 X217.826 Y42.966 E.01677
M73 P1 R213
G1 X240.973 Y66.113 E1.02793
G1 X240.973 Y66.647 E.01677
M73 Q2 S215
G1 X217.826 Y43.5 E1.02793
G1 X217.826 Y44.034 E.01677
M73 P2 R213
G1 X240.973 Y67.182 E1.02796
G1 X240.973 Y67.716 E.01677
G1 X217.826 Y44.569 E1.02793
G1 X217.826 Y45.103 E.01677
G1 X240.973 Y68.25 E1.02793
G1 X240.973 Y68.784 E.01677
G1 X217.826 Y45.637 E1.02793
G1 X217.826 Y46.171 E.01677
M73 Q2 S214
G1 X240.973 Y69.318 E1.02793
G1 X240.973 Y69.852 E.01677
G1 X217.826 Y46.705 E1.02793
G1 X217.826 Y47.239 E.01677
G1 X240.973 Y70.386 E1.02793
G1 X240.973 Y70.92 E.01677
G1 X217.826 Y47.773 E1.02793
G1 X217.826 Y48.307 E.01677
G1 X240.973 Y71.454 E1.02793
G1 X240.973 Y71.988 E.01677
G1 X217.826 Y48.841 E1.02793
G1 X217.826 Y49.375 E.01677
G1 X240.973 Y72.522 E1.02793
G1 X240.973 Y73.056 E.01677
G1 X217.826 Y49.909 E1.02793
G1 X217.826 Y50.443 E.01677
G1 X240.973 Y73.591 E1.02796
G1 X240.973 Y74.125 E.01677
G1 X217.826 Y50.977 E1.02796
G1 X217.826 Y51.512 E.0168
G1 X240.973 Y74.659 E1.02793
G1 X240.973 Y75.193 E.01677
G1 X217.826 Y52.046 E1.02793
G1 X217.826 Y52.58 E.01677
G1 X240.973 Y75.727 E1.02793
G1 X240.973 Y76.261 E.01677
G1 X217.826 Y53.114 E1.02793
G1 X217.826 Y53.648 E.01677
G1 X240.973 Y76.795 E1.02793
G1 X240.973 Y77.329 E.01677
G1 X217.826 Y54.182 E1.02793
G1 X217.826 Y54.716 E.01677
G1 X240.973 Y77.863 E1.02793
G1 X240.973 Y78.397 E.01677
G1 X217.826 Y55.25 E1.02793
G1 X217.826 Y55.784 E.01677
G1 X240.973 Y78.931 E1.02793
G1 X240.973 Y79.465 E.01677
G1 X217.826 Y56.318 E1.02793
G1 X217.826 Y56.852 E.01677
G1 X240.973 Y79.999 E1.02793
G1 X240.973 Y80.534 E.0168
G1 X217.826 Y57.386 E1.02796
G1 X217.826 Y57.921 E.0168
G1 X240.973 Y81.068 E1.02793
G1 X240.973 Y81.602 E.01677
G1 X217.826 Y58.455 E1.02793
G1 X217.826 Y58.989 E.01677
G1 X240.973 Y82.136 E1.02793
G1 X240.973 Y82.67 E.01677
G1 X217.826 Y59.523 E1.02793
G1 X217.826 Y60.057 E.01677
G1 X240.973 Y83.204 E1.02793
G1 X240.973 Y83.738 E.01677
G1 X217.826 Y60.591 E1.02793
G1 X217.826 Y61.125 E.01677
G1 X240.973 Y84.272 E1.02793
G1 X240.973 Y84.806 E.01677
G1 X217.826 Y61.659 E1.02793
G1 X217.826 Y62.193 E.01677
M73 P2 R212
G1 X240.973 Y85.34 E1.02793
G1 X240.973 Y85.874 E.01677
G1 X217.826 Y62.727 E1.02793
G1 X217.826 Y63.261 E.01677
G1 X240.973 Y86.408 E1.02793
G1 X240.973 Y86.943 E.0168
G1 X217.826 Y63.795 E1.02796
G1 X217.826 Y64.33 E.0168
G1 X240.973 Y87.477 E1.02793
G1 X240.973 Y88.011 E.01677
G1 X217.826 Y64.864 E1.02793
G1 X217.826 Y65.398 E.01677
M73 Q2 S213
G1 X240.973 Y88.545 E1.02793
G1 X240.973 Y89.079 E.01677
G1 X217.826 Y65.932 E1.02793
G1 X217.826 Y66.466 E.01677
G1 X240.973 Y89.613 E1.02793
G1 X240.973 Y90.147 E.01677
G1 X217.826 Y67 E1.02793
G1 X217.826 Y67.534 E.01677
G1 X240.973 Y90.681 E1.02793
G1 X240.973 Y91.215 E.01677
G1 X217.826 Y68.068 E1.02793
G1 X217.826 Y68.602 E.01677
G1 X240.973 Y91.749 E1.02793
G1 X240.973 Y92.283 E.01677
G1 X217.826 Y69.136 E1.02793
G1 X217.826 Y69.67 E.01677
G1 X240.973 Y92.817 E1.02793
G1 X240.973 Y93.352 E.0168
G1 X217.826 Y70.204 E1.02796
G1 X217.826 Y70.738 E.01677
G1 X240.973 Y93.886 E1.02796
G1 X240.973 Y94.42 E.01677
G1 X217.826 Y71.273 E1.02793
G1 X217.826 Y71.807 E.01677
G1 X240.973 Y94.954 E1.02793
G1 X240.973 Y95.488 E.01677
G1 X217.826 Y72.341 E1.02793
G1 X217.826 Y72.875 E.01677
G1 X240.973 Y96.022 E1.02793
G1 X240.973 Y96.556 E.01677
G1 X217.826 Y73.409 E1.02793
G1 X217.826 Y73.943 E.01677
G1 X240.973 Y97.09 E1.02793
G1 X240.973 Y97.624 E.01677
G1 X217.826 Y74.477 E1.02793
G1 X217.826 Y75.011 E.01677
G1 X240.973 Y98.158 E1.02793
G1 X240.973 Y98.692 E.01677
G1 X217.826 Y75.545 E1.02793
G1 X217.826 Y76.079 E.01677
G1 X240.973 Y99.226 E1.02793
G1 X240.973 Y99.76 E.01677
G1 X217.826 Y76.613 E1.02793
G1 X217.826 Y77.147 E.01677
G1 X240.973 Y100.295 E1.02796
G1 X240.973 Y100.829 E.01677
G1 X217.826 Y77.682 E1.02793
G1 X217.826 Y78.216 E.01677
G1 X240.973 Y101.363 E1.02793
G1 X240.973 Y101.897 E.01677
G1 X217.826 Y78.75 E1.02793
G1 X217.826 Y79.284 E.01677
G1 X240.973 Y102.431 E1.02793
G1 X240.973 Y102.965 E.01677
G1 X217.826 Y79.818 E1.02793
G1 X217.826 Y80.352 E.01677
G1 X240.973 Y103.499 E1.02793
G1 X240.973 Y104.033 E.01677
G1 X217.826 Y80.886 E1.02793
G1 X217.826 Y81.42 E.01677
M73 P2 R211
G1 X240.973 Y104.567 E1.02793
G1 X240.973 Y105.101 E.01677
G1 X217.826 Y81.954 E1.02793
G1 X217.826 Y82.488 E.01677
G1 X240.973 Y105.635 E1.02793
G1 X240.973 Y106.169 E.01677
G1 X217.826 Y83.022 E1.02793
G1 X217.826 Y83.556 E.01677
G1 X240.973 Y106.704 E1.02796
G1 X240.973 Y107.238 E.01677
M73 Q2 S212
G1 X217.826 Y84.09 E1.02796
